src/view/frontend/web/svg/heroicons/outline/arrows-expand.svg

<svg xmlns="http://www.w3.org/2000/svg" fill="none" stroke="currentColor" viewBox="0 0 24 24"><path stroke-linecap="round" stroke-linejoin="round" stroke-width="2" d="M4 8V4m0 0h4M4 4l5 5m11-1V4m0 0h-4m4 0-5 5M4 16v4m0 0h4m-4 0 5-5m11 5-5-5m5 5v-4m0 4h-4"/></svg>

<svg  viewBox="0 0 24 24" fill="none" stroke="currentColor" xmlns="http://www.w3.org/2000/svg">
<path d="M4 8V4M4 4H8M4 4L9 9M20 8V4M20 4H16M20 4L15 9M4 16V20M4 20H8M4 20L9 15M20 20L15 15M20 20V16M20 20H16"  stroke-width="2" stroke-linecap="round" stroke-linejoin="round"/>
</svg>
